X: 53
T:Gollochys Farewel
B:William Marshall A Collection Of Strathspey Reels (1781)
C:William Marshall
L:1/8
M:C
O:Scotland
R:Strathspey
Z:Clark Bernst + Richard Robinson
%%Page:2 - 1
F:http://richardrobinson.tunebook.org.uk/tune/3896
%%TBL:{"version":1,"type":"tune","id":"3896"}
K:Bb
%%staves {1 2}
B<G !trill!F>E !trill!D>C B,>d | !trill!e<c !trill!f>d c/c/c c2 | \
(c/B/)(_A/G/) (A/G/)(F/E/) D>CB,>d | e<cf>d B/B/B B2 :|
B>fd>f B>fd>f | e>gd>f c/c/c c2 | \
B>fd>f B>fd>f | e<g!trill!f>d B/B/B !trill!B2 |
B>fd>f B>fd>f | e>gd>f c/c/c cg/a/ | \
bgaf   gefd   | e<c!trill!f>d B/B/B !trill!B2 |]
V:2 middle=d clef=bass
L:1/4
BBBB | c'bb/g/f/e/ | dbBd | efBB :| \
bBbB | [cc'][Bb]a/c'/f/e/ | dbBd | efBB | BBBB | cBff | gfed | efBB |]

